X:1
T:Partition sans titre
C:Compositeur / Arrangeur
L:1/8
M:4/4
I:linebreak $
K:D
V:1 treble nm="Violon" snm="Vln."
V:1
"Em" E2 BA BEEF |"D" D2 AF ADDF |"Em" E2 BA Bdef |1"D" dBAF"Em" PE2 EF :|2"D" dBAF"Em" PE2 Bd |: %5
"Em" efge BeBc |"D" defe dAFA |"Em" efge BeBc |1"D" dBAF"Em" PE2 Bd :|2"D" dBAF"Em" PE2 EF |] %10
